X:1835
T:Else, el se mundo
T:"Glogauer Liederbuch" no. 101
C:anon.
O:Germany
B:Glogauer Liederbuch (c. 1480) no. 101
Z:Transcribed by Frank Nordberg - http://www.musicaviva.com
F:http://abc.musicaviva.com/tunes/germany/else-el-se-mundo.abc
%No barlines in the original
%Posted November 20th 2001 at abcusers by Frank Nordberg.
V:2 alto
V:3 bass
M:C
L:1/1
K:Flyd
V:1
cccc|c2A2|_B_Bc_B|AG>FF-|
FEF2-|F2zA|c2F2|z4|G2F2|
GFEF|G2G^F|G>FED|CF2E|F4|]
V:2
z4|CCCC|D2CG,|CC_B,A,|
G,2F,2|zA,C2|F,2z2|G,2F,2|z4|
G,A,CA,/B,/|CB,A,2|G,2A,_B,|A,F,G,2|F,4|
V:3
C,F,E,C,|F,2F,A,|G,D,C,G,|C,E,>D,F,|
C,2zA,|C2F,2|A,2D2|_B,>A,C2|C,2D,2|
C,F,C,D,|C,G,D,2|E,C,CF,-|F,/G,/F,/D,/C,2|C4|]
W:
W:Else, el se, el se mundo iam illuxit.
W:  Ens verum.
W:Else mundo iam illuxit,
W:dans libens el hic se.
W:
W:Nonne, nonne, nonne formam servi assumpsit.
W:  Ens verum.
W:Nonne formam servi assumpsit,
W:dans liebens nonne hic se.
W:
W:Metse, meste, metse se exinanivit.
W:  Ens verum.
W:Metse se exinanivit,
W:dans libens met hic se.
W:
W:Barbar, barbar, barbar virginis Mari\ae.
W:  Ens verum.
W:Barbar virginis Mari\ae,
W:dans libens bar hic se.
W:
W:Trine, trine, trine nobis asta in fine.
W:  Ens verum.
W:Trine nobis asta in fine,
W:dans libens tri hic se.
W:
W:Nisi, nisi, nisi hominem formasset.
W:  Ens verum.
W:Nisi hominem formasset,
W:dans libens ni hic se.
W:
W:
W:  From Musica Viva - http://www.musicaviva.com
W:  the Internet center for free sheet music downloads.
